tools/download-figma-icons/icons/outlined-medium/overview.svg

<svg width="25" height="24" viewBox="0 0 25 24" fill="none" xmlns="http://www.w3.org/2000/svg">
<path fill-rule="evenodd" clip-rule="evenodd" d="M9 9H1.5V1.5H9V9ZM0.75 10.5H9.75C10.1648 10.5 10.5 10.1648 10.5 9.75V0.75C10.5 0.33525 10.1648 0 9.75 0H0.75C0.33525 0 0 0.33525 0 0.75V9.75C0 10.1648 0.33525 10.5 0.75 10.5ZM22.509 9H15.009V1.5H22.509V9ZM14.259 10.5H23.259C23.673 10.5 24.009 10.1648 24.009 9.75V0.75C24.009 0.33525 23.673 0 23.259 0H14.259C13.8443 0 13.509 0.33525 13.509 0.75V9.75C13.509 10.1648 13.8443 10.5 14.259 10.5ZM1.5 22.5H9V15H1.5V22.5ZM9.75 24H0.75C0.33525 24 0 23.6647 0 23.25V14.25C0 13.8352 0.33525 13.5 0.75 13.5H9.75C10.1648 13.5 10.5 13.8352 10.5 14.25V23.25C10.5 23.6647 10.1648 24 9.75 24ZM22.509 22.5H15.009V15H22.509V22.5ZM14.259 24H23.259C23.673 24 24.009 23.6647 24.009 23.25V14.25C24.009 13.8352 23.673 13.5 23.259 13.5H14.259C13.8443 13.5 13.509 13.8352 13.509 14.25V23.25C13.509 23.6647 13.8443 24 14.259 24Z" fill="black"/>
</svg>

<svg width="25" height="24" viewBox="0 0 25 24" fill="none" xmlns="http://www.w3.org/2000/svg"><path fill-rule="evenodd" clip-rule="evenodd" d="M9 9H1.5V1.5H9V9ZM.75 10.5h9a.75.75 0 0 0 .75-.75v-9A.75.75 0 0 0 9.75 0h-9A.75.75 0 0 0 0 .75v9c0 .415.335.75.75.75ZM22.509 9h-7.5V1.5h7.5V9Zm-8.25 1.5h9a.75.75 0 0 0 .75-.75v-9a.75.75 0 0 0-.75-.75h-9a.75.75 0 0 0-.75.75v9c0 .415.335.75.75.75ZM1.5 22.5H9V15H1.5v7.5ZM9.75 24h-9a.75.75 0 0 1-.75-.75v-9a.75.75 0 0 1 .75-.75h9a.75.75 0 0 1 .75.75v9a.75.75 0 0 1-.75.75Zm12.759-1.5h-7.5V15h7.5v7.5Zm-8.25 1.5h9a.75.75 0 0 0 .75-.75v-9a.75.75 0 0 0-.75-.75h-9a.75.75 0 0 0-.75.75v9c0 .415.335.75.75.75Z" fill="currentColor"/></svg>
